Sources/FrostedUI/Resources/Icons.xcassets/wallet16.imageset/wallet-16.svg

<svg width="16" height="16" viewBox="0 0 16 16" fill="none" xmlns="http://www.w3.org/2000/svg" data-fui-icon="true">
  <path
    d="M11.667 2.03125C12.3504 2.03163 12.839 2.49788 13.1094 2.8916C13.3732 3.27591 13.555 3.76636 13.5781 4.23438C14.3429 4.54285 14.8828 5.29179 14.8828 6.16699V11.5C14.8828 12.6505 13.9502 13.5828 12.7998 13.583H3.13281C1.98238 13.5828 1.04981 12.6505 1.0498 11.5V4C1.0498 3.60528 1.19609 3.16678 1.40332 2.82715C1.5859 2.52798 1.9896 2.03142 2.63281 2.03125H11.667ZM2.5498 11.5C2.54981 11.8221 2.81079 12.0828 3.13281 12.083H12.7998C13.1218 12.0828 13.3828 11.8221 13.3828 11.5V6.16699C13.3828 5.84495 13.1218 5.58321 12.7998 5.58301H2.63281C2.60504 5.583 2.57722 5.57957 2.5498 5.57812V11.5ZM11.1279 7.58984C11.7578 7.65414 12.2498 8.18617 12.25 8.83301C12.25 9.52319 11.6901 10.0827 11 10.083C10.3527 10.083 9.81978 9.59135 9.75586 8.96094L9.75 8.83301L9.75586 8.70508C9.82008 8.07497 10.353 7.58301 11 7.58301L11.1279 7.58984ZM11 8.58301C10.862 8.58301 10.7502 8.69508 10.75 8.83301L10.7549 8.88379C10.7782 8.99765 10.8792 9.08301 11 9.08301C11.1206 9.08277 11.2218 8.99755 11.2451 8.88379L11.25 8.83301L11.2451 8.7832C11.2252 8.68541 11.1476 8.60887 11.0498 8.58887L11 8.58301ZM2.68457 3.6084C2.64323 3.67616 2.60697 3.75761 2.58203 3.83789C2.5561 3.92142 2.5498 3.97851 2.5498 4C2.54981 4.04592 2.58694 4.08283 2.63281 4.08301H12.0371C12.0023 3.97163 11.9483 3.84994 11.873 3.74023C11.7213 3.5192 11.6275 3.53125 11.667 3.53125H2.73926C2.7243 3.54916 2.70535 3.5744 2.68457 3.6084Z"
    fill="currentColor"
  />
</svg>

<svg xmlns="http://www.w3.org/2000/svg" width="16" height="16" fill="none" data-fui-icon="true" viewBox="0 0 16 16"><path fill="currentColor" d="M11.667 2.031c.683 0 1.172.467 1.442.86.264.385.446.875.47 1.343a2.08 2.08 0 0 1 1.304 1.933V11.5c0 1.15-.933 2.083-2.083 2.083H3.133A2.083 2.083 0 0 1 1.05 11.5V4c0-.395.146-.833.353-1.173.183-.299.587-.796 1.23-.796zM2.55 11.5c0 .322.26.583.583.583H12.8c.322 0 .583-.26.583-.583V6.167a.584.584 0 0 0-.583-.584H2.633q-.042-.001-.083-.005zm8.578-3.91a1.25 1.25 0 1 1-1.372 1.37l-.006-.127.006-.128A1.25 1.25 0 0 1 11 7.583zM11 8.583a.25.25 0 0 0-.25.25l.005.05a.25.25 0 0 0 .49 0l.005-.05-.005-.05a.25.25 0 0 0-.195-.194zM2.685 3.608c-.042.068-.078.15-.103.23A.6.6 0 0 0 2.55 4c0 .046.037.083.083.083h9.404a1.3 1.3 0 0 0-.164-.343c-.152-.22-.245-.209-.206-.209H2.739a1 1 0 0 0-.054.077"/></svg>
